src/assets/icons/filters/categories/bookshelf_stroke.svg

<svg width="48" height="47" viewBox="0 0 48 47" fill="none" xmlns="http://www.w3.org/2000/svg">
<path fill-rule="evenodd" clip-rule="evenodd" d="M7.77336 3.28215V43.3234L3.10902 43.3554L3.07702 3.31256L7.77336 3.28055V3.28215ZM17.198 3.04854L20.1982 42.981L15.5483 43.3554L12.5161 3.42616L17.198 3.04854V3.04854ZM28.194 9.15457L32.6087 42.7282L27.9876 43.3554L23.5393 9.78822L28.194 9.15457V9.15457ZM38.462 22.882L44.8848 41.8497L40.4717 43.3474L34.02 24.3877L38.462 22.882ZM3.07542 46.402H7.80536C9.50148 46.402 10.8824 45.0355 10.8824 43.3554V22.7427L12.4473 43.5842C12.5081 44.3939 12.8841 45.1331 13.5082 45.6644C13.8143 45.9274 14.1693 46.1274 14.5529 46.2529C14.9365 46.3784 15.3411 46.4269 15.7435 46.3956L20.4607 46.0468C21.2694 45.9902 22.0227 45.615 22.5552 45.0037C23.0876 44.3923 23.3558 43.5947 23.3009 42.7858L21.3327 16.5919L24.9058 43.7523C25.0114 44.5587 25.4274 45.2788 26.0787 45.7732C26.7255 46.2691 27.5428 46.4878 28.3508 46.3812L33.0408 45.7748C33.8568 45.6708 34.5817 45.258 35.0841 44.6131C35.3311 44.2976 35.5125 43.9359 35.6177 43.5493C35.7229 43.1627 35.7499 42.7589 35.697 42.3618L34.9577 36.7438L37.5243 44.3235C37.7331 44.9315 38.127 45.4588 38.6507 45.8316C39.1744 46.2043 39.8017 46.4038 40.4445 46.402C40.7677 46.402 41.0957 46.3524 41.4206 46.2436L45.9025 44.7571C46.2839 44.6324 46.6368 44.4335 46.941 44.1719C47.2452 43.9103 47.4947 43.5911 47.6751 43.2327C47.8555 42.8743 47.9632 42.4838 47.9921 42.0836C48.021 41.6834 47.9705 41.2814 47.8434 40.9009L41.411 21.9027C41.1459 21.1336 40.5878 20.5003 39.858 20.1407C39.1283 19.7811 38.2861 19.7242 37.5147 19.9825L33.0344 21.4707C33.0056 21.4803 32.98 21.4947 32.9528 21.5059L31.2758 8.75935C31.0566 7.09523 29.5029 5.91594 27.8276 6.13196L23.1393 6.7352C22.6155 6.80296 22.1182 7.00508 21.6956 7.32191C21.2731 7.63875 20.9397 8.05953 20.7279 8.54333L20.2959 2.81972C20.2645 2.41871 20.1544 2.02781 19.9718 1.66943C19.7891 1.31105 19.5376 0.992222 19.2315 0.731212C18.9255 0.470201 18.571 0.272137 18.1882 0.148365C17.8055 0.0245934 17.4021 -0.022453 17.0012 0.00991975L12.2841 0.357145C11.4806 0.415479 10.732 0.786608 10.1991 1.39082C9.91209 1.03131 9.54796 0.740863 9.13365 0.540906C8.71933 0.340949 8.2654 0.23659 7.80536 0.235536H3.07542C1.3793 0.235536 0 1.60203 0 3.28055V43.3554C0 45.0355 1.3793 46.402 3.07542 46.402V46.402Z" fill="black"/>
</svg>

<svg width="48" height="47" viewBox="0 0 48 47" fill="none" xmlns="http://www.w3.org/2000/svg"><path fill-rule="evenodd" clip-rule="evenodd" d="M7.773 3.282v40.041l-4.664.032-.032-40.042 4.696-.032v.001zm9.425-.233l3 39.932-4.65.374-3.032-39.929 4.682-.377zm10.996 6.106l4.415 33.573-4.621.627-4.449-33.567 4.655-.633zm10.268 13.727l6.423 18.968-4.413 1.497-6.452-18.96 4.442-1.505zM3.075 46.402h4.73c1.696 0 3.077-1.367 3.077-3.047V22.743l1.565 20.841a3.01 3.01 0 001.061 2.08 3.066 3.066 0 002.236.732l4.717-.35a3.061 3.061 0 002.84-3.26l-1.968-26.194 3.573 27.16a3.013 3.013 0 001.173 2.021 3.074 3.074 0 002.272.608l4.69-.606a3.063 3.063 0 002.577-2.226 3.01 3.01 0 00.079-1.187l-.74-5.618 2.567 7.58a3.079 3.079 0 002.92 2.078c.324 0 .652-.05.977-.158l4.482-1.487a3.043 3.043 0 001.94-3.856l-6.432-18.998a3.085 3.085 0 00-3.896-1.92l-4.48 1.488c-.03.01-.055.024-.082.035L31.276 8.759c-.22-1.664-1.773-2.843-3.448-2.627l-4.689.603a3.061 3.061 0 00-2.411 1.808l-.432-5.723A3.06 3.06 0 0017 .01l-4.717.347A3.077 3.077 0 0010.2 1.391 3.072 3.072 0 007.805.236h-4.73C1.38.236 0 1.602 0 3.28v40.074c0 1.68 1.38 3.047 3.075 3.047z" fill="#000"/></svg>
